X:41
T: John, Come Kiss me now 
N: HA041
O: Europa, Mitteleuropa, Deutschland
N: Vorschlge; Triller
M: 4/4
L: 1/16
K: Eb
B,4 | E4E3FEFG2F3E | A4A3BA4
G2F2 | E4E2F2G2F2G2=A2 | B4B3cB2B,2
C2D2 | E4E3FEFG2F3E | A4A3BABc2
B2A2 | G4F2E2D2E2F2A2 | G4F3EE4
B4 | e4e3fe2_d2c2B2 | A4A3BA2B2
c2d2 | e4e3fefg2f2e2 | d3cB2c2d2B2
c2d2 | e3de2f2e2d2c2B2 | A3Bc3de4

@@@ Tune index: 7266
